X: 9474
T: Darby's Farewell To London
R: reel
M: 4/4
K: Gmajor
ed|BGEG DEGA|BGdG eGdz|BEEA DEGA|BGdB G2GA|
B2EA DEGA|BGdG eGdz|BG~G2 EGDG|FGAF G3A|
BGEG DEGA|BGdG eGdz|BE~E2 DEGA|BGdB G2GA|
BG~G2 EG~G2|DG~G2 FGAz|BG~G2 EGDG|FGAF G3A||
|:BABd eg~g2|ezag eggz|GABd g2eg|dBAB GEDz|
GABd eg~g2|eaag eg~g2|bgag egdG|FGAF G2GA:|

